mimic-panels/demsby.svg

<svg xmlns="http://www.w3.org/2000/svg" width="210mm" height="148mm">
    <style>
        .route_label {
            fill: black;
            font-size: 20;
            font-family: BritishRailLightNormal;
        }
        .route_button {
            stroke: black;
            stroke-width: 1mm;
            fill: red;
        }
        .point_switch {
            stroke: black;
            stroke-width: 1mm;
            fill: #bcc6cc;
        }
        .led {
            stroke: black;
            stroke-width: 1mm;
            fill: #3BB9FF;
        }
        line {
            stroke-width: 3mm;
            stroke: black;
            stroke-linecap: round;
        }
    </style>

    <rect width="210mm" height="148mm" fill="#eee" id="bg"/>

    <!--br logo-->
    <path fill="#de433e" d="M87.53 12v47.94H10.82V12h76.71z" id="logo_bg"/>
    <path fill="white" d="M76.57 28.62v4.77H62.61L48.99 40.2h27.58v4.77H48.99l18.05 7.49H54.78l-16.01-7.49H24.8V40.2h13.97l13.62-6.81H24.8v-4.77h27.59l-18.05-7.49H46.6l16.01 7.49h13.96z" id="logo_fg"/>

    <!--text labels-->
    <text fill="black" x="25mm" y="13mm" font-size="38" font-family="BritishRailDarkNormal">Demsby</text>

    <!--tracks-->
    <line id="branch" x1="5mm" y1="40mm" x2="110mm" y2="40mm"/>
    <line id="p1" x1="140mm" y1="20mm" x2="170mm" y2="20mm"/>
    <line id="p2" x1="140mm" y1="40mm" x2="170mm" y2="40mm"/>
    <line id="up" x1="5mm" y1="60mm" x2="205mm" y2="60mm"/>
    <line id="down" x1="5mm" y1="80mm" x2="205mm" y2="80mm"/>
    <line id="p3" x1="140mm" y1="100mm" x2="170mm" y2="100mm"/>

    <line id="branch_to_p1" x1="110mm" y1="40mm" x2="140mm" y2="20mm"/>

    <line id="up_to_p2" x1="110mm" y1="60mm" x2="140mm" y2="40mm"/>
    <line id="p2_to_up" x1="170mm" y1="40mm" x2="200mm" y2="60mm"/>

    <line id="down_to_p3" x1="110mm" y1="80mm" x2="140mm" y2="100mm"/>
    <line id="p3_to_down" x1="170mm" y1="100mm" x2="200mm" y2="80mm"/>

    <line id="crossover" x1="15mm" y1="80mm" x2="45mm" y2="60mm"/>

    <line id="branch_to_up" x1="75mm" y1="40mm" x2="105mm" y2="60mm"/>
    <line id="up_to_branch" x1="75mm" y1="60mm" x2="105mm" y2="40mm"/>
    
    <circle cx="110mm" cy="80mm" r="3mm" class="point_switch"/>
    <circle cx="200mm" cy="80mm" r="3mm" class="point_switch"/>
    
    <circle cx="110mm" cy="60mm" r="3mm" class="point_switch"/>
    <circle cx="200mm" cy="60mm" r="3mm" class="point_switch"/>
    
    <circle cx="75mm" cy="50mm" r="3mm" class="point_switch"/>
    <circle cx="15mm" cy="70mm" r="3mm" class="point_switch"/>
    
    <circle cx="125mm" cy="80mm" r="1.5mm" class="led"/>
    <circle cx="125mm" cy="90mm" r="1.5mm" class="led"/>
    
    <circle cx="185mm" cy="80mm" r="1.5mm" class="led"/>
    <circle cx="185mm" cy="90mm" r="1.5mm" class="led"/>
    
    <circle cx="125mm" cy="50mm" r="1.5mm" class="led"/>
    <circle cx="125mm" cy="60mm" r="1.5mm" class="led"/>
    
    <circle cx="185mm" cy="50mm" r="1.5mm" class="led"/>
    <circle cx="185mm" cy="60mm" r="1.5mm" class="led"/>
    
    <circle cx="30mm" cy="60mm" r="1.5mm" class="led"/>
    <circle cx="30mm" cy="70mm" r="1.5mm" class="led"/>
    <circle cx="30mm" cy="80mm" r="1.5mm" class="led"/>
    
    <circle cx="90mm" cy="40mm" r="1.5mm" class="led"/>
    <circle cx="90mm" cy="50mm" r="1.5mm" class="led"/>
    <circle cx="90mm" cy="60mm" r="1.5mm" class="led"/>

    <!--route buttons-->
    <circle cx="15mm" cy="125mm" r="3mm" class="route_button"/>
    <text x="23mm" y="126mm" class="route_label">Route One</text>
    <circle cx="65mm" cy="125mm" r="3mm" class="route_button"/>
    <text x="73mm" y="126mm" class="route_label">Route Two</text>
    <circle cx="115mm" cy="125mm" r="3mm" class="route_button"/>
    <text x="123mm" y="126mm" class="route_label">Route Three</text>
    <circle cx="165mm" cy="125mm" r="3mm" class="route_button"/>
    <text x="173mm" y="126mm" class="route_label">Route Four</text>
    <circle cx="15mm" cy="137mm" r="3mm" class="route_button"/>
    <text x="23mm" y="138mm" class="route_label">Route Five</text>
    <circle cx="65mm" cy="137mm" r="3mm" class="route_button"/>
    <text x="73mm" y="138mm" class="route_label">Route Six</text>
    <circle cx="115mm" cy="137mm" r="3mm" class="route_button"/>
    <text x="123mm" y="138mm" class="route_label">Route Seven</text>
    <circle cx="165mm" cy="137mm" r="3mm" class="route_button"/>
    <text x="173mm" y="138mm" class="route_label">Route Eight</text>
</svg>

<?xml version="1.0" encoding="UTF-8" standalone="no"?>
<!DOCTYPE svg PUBLIC "-//W3C//DTD SVG 1.1//EN" "http://www.w3.org/Graphics/SVG/1.1/DTD/svg11.dtd">
<svg version="1.1" xmlns="http://www.w3.org/2000/svg" xmlns:xlink="http://www.w3.org/1999/xlink"
     preserveAspectRatio="xMidYMid meet" viewBox="0 0 793.701 548.031" width="793.7" height="548.03">
    <defs>
        <path d="M0 0L793.7 0L793.7 548.03L0 548.03L0 0Z" id="d4mIJqOU4A"/>
        <path d="M558.07 402.46L434.06 402.46" id="aVmS6oNBV"/>
        <path d="M781.3 342.52L12.4 342.52" id="g3UjG9rgm"/>
        <path d="M782.81 256.89C572.15 256.89 418.39 256.89 321.51 256.89C224.64 256.89 121.1 256.89 10.89 256.89"
              id="f9YUfNvnp"/>
        <path d="M558.07 196.95L540.05 196.95L434.06 196.95" id="c54dbx8Mcq"/>
        <text id="bntIV3DV" x="56.25" y="25" font-size="38" font-family="BritishRailDarkNormal"
              transform="matrix(1 0 0 1 42.962625 -3.2480625000000174)" style="line-height:100%" xml:space="preserve"
              dominant-baseline="text-before-edge"><tspan x="56.25" dy="0em" alignment-baseline="before-edge" dominant-baseline="text-before-edge" text-anchor="start">Demsby</tspan></text>
        <path d="M353.75 256.89L436.71 196.95" id="bLMADbk5O"/>
        <path d="M351.9 344.62L437.26 402.46" id="g6rx5YTqW"/>
        <path d="M558.07 404.15L636.35 342.52" id="cXNuhrXxV"/>
        <path d="M555.8 196.95L636.35 256.89" id="hTux8yDhW"/>
        <path d="M632.48 85.63L434.06 85.63L310.04 171.26L12.4 171.26" id="a9inHdkjM"/>
        <path d="M310.04 256.89L186.02 174.82" id="abtL6wIonG"/>
        <path d="M186.02 256.89L310.04 171.26" id="b1lhPAK6kM"/>
        <path d="M62.01 342.52L124.02 256.89" id="c23VxpiB3o"/>
        <path d="M72.28 428.15C72.28 434.41 67.2 439.49 60.94 439.49C54.69 439.49 49.61 434.41 49.61 428.15C49.61 421.89 54.69 416.81 60.94 416.81C67.2 416.81 72.28 421.89 72.28 428.15Z" id="a1F0AvTX6j"/>
        <path d="M631.42 430.92C631.42 437.18 626.34 442.26 620.08 442.26C613.82 442.26 608.74 437.18 608.74 430.92C608.74 424.67 613.82 419.59 620.08 419.59C626.34 419.59 631.42 424.67 631.42 430.92Z" id="c1bWuFsII9"/>
        <path d="M446.46 430.92C446.46 437.18 441.38 442.26 435.12 442.26C428.86 442.26 423.78 437.18 423.78 430.92C423.78 424.67 428.86 419.59 435.12 419.59C441.38 419.59 446.46 424.67 446.46 430.92Z" id="a6aC0u7Qj0"/>
        <path d="M259.37 430.92C259.37 437.18 254.29 442.26 248.03 442.26C241.77 442.26 236.69 437.18 236.69 430.92C236.69 424.67 241.77 419.59 248.03 419.59C254.29 419.59 259.37 424.67 259.37 430.92Z" id="d2StHZKB94"/>
        <path d="M73.35 511C73.35 517.26 68.27 522.34 62.01 522.34C55.75 522.34 50.67 517.26 50.67 511C50.67 504.75 55.75 499.67 62.01 499.67C68.27 499.67 73.35 504.75 73.35 511Z" id="b3xzTmm50H"/>
        <path d="M259.37 513.78C259.37 520.04 254.29 525.12 248.03 525.12C241.77 525.12 236.69 520.04 236.69 513.78C236.69 507.52 241.77 502.44 248.03 502.44C254.29 502.44 259.37 507.52 259.37 513.78Z" id="h3tEtiRUK"/>
        <path d="M445.39 513.78C445.39 520.04 440.31 525.12 434.06 525.12C427.8 525.12 422.72 520.04 422.72 513.78C422.72 507.52 427.8 502.44 434.06 502.44C440.31 502.44 445.39 507.52 445.39 513.78Z" id="a6327RKo7x"/>
        <path d="M631.42 513.78C631.42 520.04 626.34 525.12 620.08 525.12C613.82 525.12 608.74 520.04 608.74 513.78C608.74 507.52 613.82 502.44 620.08 502.44C626.34 502.44 631.42 507.52 631.42 513.78Z" id="fIysU4xq4"/>
        <path d="M87.53 12C87.53 12 87.53 12 87.53 12C87.53 40.76 87.53 56.74 87.53 59.94C87.53 59.94 87.53 59.94 87.53 59.94C41.5 59.94 15.93 59.94 10.82 59.94C10.82 59.94 10.82 59.94 10.82 59.94C10.82 31.18 10.82 15.2 10.82 12C10.82 12 10.82 12 10.82 12C56.84 12 82.41 12 87.53 12Z" id="cA06uvD0K"/>
        <path d="M76.57 28.62L76.57 33.39L62.61 33.39L48.99 40.2L76.57 40.2L76.57 44.97L48.99 44.97L67.04 52.46L54.78 52.46L38.77 44.97L24.8 44.97L24.8 40.2L38.77 40.2L52.39 33.39L24.8 33.39L24.8 28.62L52.39 28.62L34.34 21.13L46.6 21.13L62.61 28.62L76.57 28.62Z" id="e7Ydyd8Xrg"/>
        <text id="a1tN36dnO7" x="86.81" y="428.15" font-size="20" font-family="BritishRailLightNormal" font-weight="normal"
              font-style="normal" letter-spacing="0" alignment-baseline="before-edge" transform="matrix(1 0 0 1 0 -13)"
              style="line-height:100%" xml:space="preserve" dominant-baseline="text-before-edge"><tspan x="86.81" dy="0em" alignment-baseline="before-edge" dominant-baseline="text-before-edge" text-anchor="start">Route One</tspan></text>
    </defs>
    <g>
        <g>
            <g>
                <use xlink:href="#d4mIJqOU4A" opacity="1" fill="#f5f5f5" fill-opacity="1"/>
                <g>
                    <use xlink:href="#d4mIJqOU4A" opacity="1" fill-opacity="0" stroke="#06e1d2" stroke-width="0"
                         stroke-opacity="1"/>
                </g>
            </g>
            <g>
                <g>
                    <use xlink:href="#aVmS6oNBV" opacity="1" fill-opacity="0" stroke="#000000" stroke-width="11.34"
                         stroke-opacity="1"/>
                </g>
            </g>
            <g>
                <g>
                    <use xlink:href="#g3UjG9rgm" opacity="1" fill-opacity="0" stroke="#000000" stroke-width="11.34"
                         stroke-opacity="1"/>
                </g>
            </g>
            <g>
                <g>
                    <use xlink:href="#f9YUfNvnp" opacity="1" fill-opacity="0" stroke="#000000" stroke-width="11.34"
                         stroke-opacity="1"/>
                </g>
            </g>
            <g>
                <g>
                    <use xlink:href="#c54dbx8Mcq" opacity="1" fill-opacity="0" stroke="#000000" stroke-width="11.34"
                         stroke-opacity="1"/>
                </g>
            </g>
            <g id="bBRsrOSNu">
                <use xlink:href="#bntIV3DV" opacity="1" fill="#000000" fill-opacity="1"/>
            </g>
            <g>
                <use xlink:href="#bLMADbk5O" opacity="1" fill="#000000" fill-opacity="1"/>
                <use xlink:href="#bLMADbk5O" opacity="1" fill="#000000" fill-opacity="1"/>
                <g>
                    <use xlink:href="#bLMADbk5O" opacity="1" fill-opacity="0" stroke="#000000" stroke-width="11.34"
                         stroke-opacity="1"/>
                </g>
            </g>
            <g>
                <use xlink:href="#g6rx5YTqW" opacity="1" fill="#000000" fill-opacity="1"/>
                <use xlink:href="#g6rx5YTqW" opacity="1" fill="#000000" fill-opacity="1"/>
                <g>
                    <use xlink:href="#g6rx5YTqW" opacity="1" fill-opacity="0" stroke="#000000" stroke-width="11.34"
                         stroke-opacity="1"/>
                </g>
            </g>
            <g>
                <use xlink:href="#cXNuhrXxV" opacity="1" fill="#000000" fill-opacity="1"/>
                <use xlink:href="#cXNuhrXxV" opacity="1" fill="#000000" fill-opacity="1"/>
                <g>
                    <use xlink:href="#cXNuhrXxV" opacity="1" fill-opacity="0" stroke="#000000" stroke-width="11.34"
                         stroke-opacity="1"/>
                </g>
            </g>
            <g>
                <use xlink:href="#hTux8yDhW" opacity="1" fill="#000000" fill-opacity="1"/>
                <use xlink:href="#hTux8yDhW" opacity="1" fill="#000000" fill-opacity="1"/>
                <g>
                    <use xlink:href="#hTux8yDhW" opacity="1" fill-opacity="0" stroke="#000000" stroke-width="11.34"
                         stroke-opacity="1"/>
                </g>
            </g>
            <g>
                <g>
                    <use xlink:href="#a9inHdkjM" opacity="1" fill-opacity="0" stroke="#000000" stroke-width="11.34"
                         stroke-opacity="1"/>
                </g>
            </g>
            <g>
                <g>
                    <use xlink:href="#abtL6wIonG" opacity="1" fill-opacity="0" stroke="#000000" stroke-width="11.34"
                         stroke-opacity="1"/>
                </g>
            </g>
            <g>
                <g>
                    <use xlink:href="#b1lhPAK6kM" opacity="1" fill-opacity="0" stroke="#000000" stroke-width="11.34"
                         stroke-opacity="1"/>
                </g>
            </g>
            <g>
                <g>
                    <use xlink:href="#c23VxpiB3o" opacity="1" fill-opacity="0" stroke="#000000" stroke-width="11.34"
                         stroke-opacity="1"/>
                </g>
            </g>
            <g><use xlink:href="#a1F0AvTX6j" opacity="1" fill="#ff0000" fill-opacity="1"/></g>
            <g><use xlink:href="#c1bWuFsII9" opacity="1" fill="#ff0000" fill-opacity="1"/></g>
            <g><use xlink:href="#a6aC0u7Qj0" opacity="1" fill="#ff0000" fill-opacity="1"/></g>
            <g><use xlink:href="#d2StHZKB94" opacity="1" fill="#ff0000" fill-opacity="1"/></g>
            <g><use xlink:href="#b3xzTmm50H" opacity="1" fill="#ff0000" fill-opacity="1"/></g>
            <g><use xlink:href="#h3tEtiRUK" opacity="1" fill="#ff0000" fill-opacity="1"/></g>
            <g><use xlink:href="#a6327RKo7x" opacity="1" fill="#ff0000" fill-opacity="1"/></g>
            <g><use xlink:href="#fIysU4xq4" opacity="1" fill="#ff0000" fill-opacity="1"/></g>
            <g>
                <use xlink:href="#cA06uvD0K" opacity="1" fill="#de433e" fill-opacity="1"/>
                <g>
                    <use xlink:href="#cA06uvD0K" opacity="1" fill-opacity="0" stroke="#000000" stroke-width="0.26"
                         stroke-opacity="0"/>
                </g>
            </g>
            <g>
                <use xlink:href="#e7Ydyd8Xrg" opacity="1" fill="#ffffff" fill-opacity="1"/>
                <g>
                    <use xlink:href="#e7Ydyd8Xrg" opacity="1" fill-opacity="0" stroke="#000000" stroke-width="0.26"
                         stroke-opacity="0"/>
                </g>
            </g>
            <g id="c1R7QI5UCe">
                <use xlink:href="#a1tN36dnO7" opacity="1" fill="#000000" fill-opacity="1"/>
            </g>
        </g>
    </g>
</svg>
